symbols/web/assignment_late/materialsymbolssharp/assignment_late_wght300grad200fill1_40px.svg

<svg xmlns="http://www.w3.org/2000/svg" height="40" width="40"><path d="M20 28.375q.667 0 1.104-.437.438-.438.438-1.105 0-.666-.438-1.083-.437-.417-1.104-.417t-1.083.417q-.417.417-.417 1.083 0 .667.417 1.105.416.437 1.083.437Zm-1.417-6.042h2.834V11.667h-2.834ZM4.958 35.083V5h10.834q.291-1.375 1.458-2.375t2.75-1q1.625 0 2.792 1 1.166 1 1.416 2.375h10.834v30.083ZM20 6.833q.542 0 .958-.375.417-.375.417-.958t-.417-.979q-.416-.396-.958-.396t-.938.396q-.395.396-.395.979t.395.958q.396.375.938.375Z"/></svg>

<svg xmlns="http://www.w3.org/2000/svg" height="40" width="40"><path d="M20 28.375Q20.667 28.375 21.104 27.938Q21.542 27.5 21.542 26.833Q21.542 26.167 21.104 25.75Q20.667 25.333 20 25.333Q19.333 25.333 18.917 25.75Q18.5 26.167 18.5 26.833Q18.5 27.5 18.917 27.938Q19.333 28.375 20 28.375ZM18.583 22.333H21.417V11.667H18.583ZM4.958 35.083V5H15.417Q15.917 3.625 17.146 2.625Q18.375 1.625 20.042 1.625Q21.667 1.625 22.896 2.625Q24.125 3.625 24.583 5H35.042V35.083ZM20 6.875Q20.542 6.875 20.958 6.5Q21.375 6.125 21.375 5.542Q21.375 4.958 20.958 4.563Q20.542 4.167 20 4.167Q19.458 4.167 19.062 4.563Q18.667 4.958 18.667 5.542Q18.667 6.125 19.062 6.5Q19.458 6.875 20 6.875Z"/></svg>
